!!!COM:	Josquin des Prez
!!!CDT:	~1450-1521/08/27
!!!OPR:	Missa Pange lingua
!!!ONM:	4
!!!OTL:	Sanctus
!!!AGN:	Mass; Sanctus
!!!SCT:	NJE 4.3
!!!SCA:	New Josquin Edition 4.3
!!!voices: 4
!!!voices-OPR:	4
**kern	**kern	**kern	**kern
*staff4	*staff3	*staff2	*staff1
*Ivox	*Ivox	*Ivox	*Ivox
*I"Bassus	*I"Tenor	*I"Altus	*I"Superius
*I'B	*I'T	*I'A	*I'S
*>[A,B,C,D,C]	*>[A,B,C,D,C]	*>[A,B,C,D,C]	*>[A,B,C,D,C]
*>Sanctus[A]	*>Sanctus[A]	*>Sanctus[A]	*>Sanctus[A]
*>Pleni[B]	*>Pleni[B]	*>Pleni[B]	*>Pleni[B]
*>Osanna[C]	*>Osanna[C]	*>Osanna[C]	*>Osanna[C]
*>Benedictus[D]	*>Benedictus[D]	*>Benedictus[D]	*>Benedictus[D]
*>A	*>A	*>A	*>A
*clefF4	*clefGv2	*clefGv2	*clefG2
*k[]	*k[]	*k[]	*k[]
*M3/1	*M3/1	*M3/1	*M3/1
*met(O)	*met(O)	*met(O)	*met(O)
!!section: Sanctus
!!!OMD: Sanctus
=1-	=1-	=1-	=1-
0.r	0.r	0.r	0e
.	.	.	1e
=2	=2	=2	=2
0.r	0.r	0A	1f
.	.	.	0e
.	.	1A	.
=3	=3	=3	=3
0.r	0.r	1B	2d/
.	.	.	2g/
.	.	0A	2a/
.	.	.	1cc
.	.	.	4b\
.	.	.	4a/
=4	=4	=4	=4
0.r	0.r	2G/	2b\
.	.	2c\	2.cc\
.	.	2d\	.
.	.	.	4b\
.	.	1f	4a/
.	.	.	4g/
.	.	.	2a/
.	.	4e\	2b\
.	.	4d\	.
=5	=5	=5	=5
0.r	0.r	2e\	2cc\
.	.	2.f\	2.dd\
.	.	4e\	4cc\
.	.	4d\	1cc
.	.	4c\	.
.	.	1d	.
.	.	.	2b\
=6	=6	=6	=6
0.r	0.r	2.c\	1.cc
.	.	4B\	.
.	.	2A/	.
.	.	2G/	2b\
.	.	2c\	2a/
.	.	2B\	2g/
=7	=7	=7	=7
0.r	0E	2.e\	2cc\
.	.	.	2.b\
.	.	4d\	.
.	.	2e\	.
.	.	.	4a/
.	.	2c\	1a
.	1E	1B	.
.	.	.	2g#i/
=8	=8	=8	=8
0AA	1F	0.A	0.a
.	0E	.	.
1AA	.	.	.
=9	=9	=9	=9
1BB	2D/	0.r	0.r
.	2G/	.	.
0AA	2A/	.	.
.	1c	.	.
.	4B\	.	.
.	4A/	.	.
=10	=10	=10	=10
2GG/	2B\	0.r	0.r
2C/	2.c\	.	.
2D\	.	.	.
.	4B\	.	.
1F	4A/	.	.
.	4G/	.	.
.	2A/	.	.
4E\	2B\	.	.
4D\	.	.	.
=11	=11	=11	=11
2E\	2c\	0.r	0.r
2.F\	2.d\	.	.
4E\	4c\	.	.
4D\	1c	.	.
4C/	.	.	.
1D	.	.	.
.	2B\	.	.
=12	=12	=12	=12
0C	1c	1.e	1.g
.	1r	.	.
.	.	2e\	2g/
1r	[1c	1e	1g
=13	=13	=13	=13
1.F	2c\]	0f	0a
.	2c\	.	.
.	1c	.	.
2F\	.	.	.
1F	1d	1f	1a
=14	=14	=14	=14
0F	2c\	0f	2a/
.	2A/	.	2.cc\
.	2c\	.	.
.	.	.	4b\
.	2d\	.	1a
1G	1B	2.d\	.
.	.	.	2g/
.	.	4e\	.
=15	=15	=15	=15
2F\	1.A	1.f	1a
2D\	.	.	.
2F\	.	.	1r
2G\	2B\	2d\	.
1E	1c	2e\	1r
.	.	2g\	.
=16	=16	=16	=16
1.D	2.d\	1.f	1a
.	4B\	.	.
.	2d\	.	2f/
2E\	2B\	4e\	2g/
.	.	4d\	.
1F	1A	2c\	1a
.	.	2d\	.
=17	=17	=17	=17
2.G\	1G	2B\	1d
.	.	2G/	.
4F\	.	.	.
2G\	2r	2B\	2r
2E\	2G/	2c\	2g/
1D	2.A/	1d	2.f/
.	4B\	.	8e/L
.	.	.	8d/J
=18	=18	=18	=18
1C	[0.cl	1G	1e
2r	.	2r	2r
2C/	.	2G/	2e/
2.F\	.	1A	1f
4E\	.	.	.
=19	=19	=19	=19
[0.Cl	0.c_	1G	[0.el
.	.	2r	.
.	.	2G/	.
.	.	1A	.
=20	=20	=20	=20
0.C]	0.c]	0.Gl	0.e]
!!LO:LB:i:g=z
=21||	=21||	=21||	=21||
*>B	*>B	*>B	*>B
*clefF4	*clefGv2	*clefGv2	*clefG2
*k[]	*k[]	*k[]	*k[]
*M2/1	*M2/1	*M2/1	*M2/1
*met(C|)	*met(C|)	*met(C|)	*met(C|)
!!section: Pleni sunt celi
!!!OMD: Pleni sunt celi
0r	0r	2.E/	0r
.	.	4F/	.
.	.	2G/	.
.	.	2A/	.
=22	=22	=22	=22
0r	0r	2E/	0r
.	.	2A/	.
.	.	2G/	.
.	.	[2c\	.
=23	=23	=23	=23
0r	0r	2c\]	2.e/
.	.	4B\	.
.	.	4A/	4f/
.	.	2B\	2g/
.	.	2A/	2a/
=24	=24	=24	=24
0r	0r	2.c\	2e/
.	.	.	2a/
.	.	4d\	.
.	.	[1e	2g/
.	.	.	[2cc\
=25	=25	=25	=25
0r	0r	0e_	2cc\]
.	.	.	4b\
.	.	.	4a/
.	.	.	2cc\
.	.	.	[2b\
=26	=26	=26	=26
0r	0r	1e]	4b\]
.	.	.	4a/
.	.	.	2cc\
.	.	[1e	2b\
.	.	.	[2cc\
=27	=27	=27	=27
0r	0r	2e\]	2cc\]
.	.	2d\	4b\
.	.	.	4a/
.	.	1e	1g
=28	=28	=28	=28
0r	0r	1.f	1a
.	.	.	1d
.	.	4e\	.
.	.	4d\	.
=29	=29	=29	=29
0r	0r	1f	2r
.	.	.	2a/
.	.	1e	2b\
.	.	.	[2cc\
=30	=30	=30	=30
0r	0r	1.f	2cc\]
.	.	.	4b\
.	.	.	4a/
.	.	.	1dd
.	.	4e\	.
.	.	4d\	.
=31	=31	=31	=31
0r	0r	2f\	1.cc
.	.	2e\	.
.	.	2f\	.
.	.	2g\	2b\
=32	=32	=32	=32
0r	0r	2e\	2cc\
.	.	2f\	2.dd\
.	.	2d\	.
.	.	.	4cc\
.	.	[2e\	4b\
.	.	.	4a/
=33	=33	=33	=33
0r	0r	2e\]	2.g/
.	.	2.e\	.
.	.	.	4a/
.	.	.	2b\
.	.	4d\	.
.	.	2e\	2cc\
=34	=34	=34	=34
0r	0r	2f\	2a/
.	.	2d\	1b
.	.	1e	.
.	.	.	[2e/
=35	=35	=35	=35
0r	0r	1E	2e/]
.	.	.	2.b\
.	.	2.e\	.
.	.	.	4a/
.	.	.	2b\
.	.	4d\	.
=36	=36	=36	=36
0r	0r	2e\	2cc\
.	.	2f\	2a/
.	.	2d\	1b
.	.	[2e\	.
=37	=37	=37	=37
0r	0r	2e\]	1e
.	.	1E	.
.	.	.	[1g
.	.	[2e\	.
=38	=38	=38	=38
0r	0r	2e\]	2g/]
.	.	2f\	2a/
.	.	2d\	1b
.	.	[2e\	.
=39	=39	=39	=39
0r	0r	2e\]	2cc\
.	.	2f\	2.dd\
.	.	2d\	.
.	.	.	4cc\
.	.	[2e\	4b\
.	.	.	4a/
=40	=40	=40	=40
0r	0r	2e\]	2.g/
.	.	1E	.
.	.	.	4a/
.	.	.	2b\
.	.	[2e\	2e/
=41	=41	=41	=41
0r	0r	2e\]	2g/
.	.	2f\	2a/
.	.	2d\	2b\
.	.	[2e\	[2cc\
=42	=42	=42	=42
0r	0r	2e\]	4cc\]
.	.	.	4b\
.	.	2c\	1a
.	.	1B	.
.	.	.	2g#i/
=43	=43	=43	=43
0r	0r	[0A	1a
.	.	.	2r
.	.	.	2e/
=44	=44	=44	=44
0r	0r	0A]	2f/
.	.	.	2e/
.	.	.	1a
=45	=45	=45	=45
0r	0r	1r	1.g
.	.	1e	.
.	.	.	4f/
.	.	.	4e/
=46	=46	=46	=46
0r	0r	2f\	2d/
.	.	2e\	2c/
.	.	1a	1f
=47	=47	=47	=47
0r	0r	1.g	1e
.	.	.	1g
.	.	4f\	.
.	.	4e\	.
=48	=48	=48	=48
0r	0r	2d\	2f/
.	.	2c\	1e
.	.	1f	.
.	.	.	2d/
=49	=49	=49	=49
0r	0r	2e\	2e/
.	.	2A/	4c/
.	.	.	4d/
.	.	2.c\	4e/
.	.	.	4f/
.	.	.	2g/
.	.	4B\	.
=50	=50	=50	=50
0r	0r	2A/	2f/
.	.	2G/	1e
.	.	1F	.
.	.	.	2d/
=51	=51	=51	=51
0r	0r	0E	1e
.	.	.	2r
.	.	.	2e/
=52	=52	=52	=52
0r	0r	2r	2e/
.	.	2e\	2.g/
.	.	2e\	.
.	.	.	4f/
.	.	[2g\	4e/
.	.	.	4d/
=53	=53	=53	=53
0r	0r	4g\]	2e/
.	.	4f\	.
.	.	4e\	2c/
.	.	4d\	.
.	.	2e\	1g
.	.	2c\	.
=54	=54	=54	=54
0r	0r	1g	2r
.	.	.	2e/
.	.	2r	2e/
.	.	2e\	[2g/
=55	=55	=55	=55
0r	0r	2e\	4g/]
.	.	.	4f/
.	.	2.g\	4e/
.	.	.	4d/
.	.	.	2e/
.	.	4f\	.
.	.	4e\	2c/
.	.	4d\	.
=56	=56	=56	=56
0r	0r	2e\	1.g
.	.	2c\	.
.	.	[1g	.
.	.	.	2a/
=57	=57	=57	=57
0r	0r	2g\]	2b\
.	.	2e\	2cc\
.	.	2f\	2dd\
.	.	2g\	2b\
=58	=58	=58	=58
0r	0r	2e\	2cc\
.	.	2f\	2.dd\
.	.	2.g\	.
.	.	.	4g/
.	.	.	[2g/
.	.	4c\	.
=59	=59	=59	=59
0r	0r	1c	2g/]
.	.	.	2cc\
.	.	2f\	2a/
.	.	2d\	[2b\
=60	=60	=60	=60
0r	0r	2.e\	4b\]
.	.	.	4g/
.	.	.	1g
.	.	4c\	.
.	.	1c	.
.	.	.	2cc\
=61	=61	=61	=61
0r	0r	2f\	2a/
.	.	2d\	2.b\
.	.	2.e\	.
.	.	.	4g/
.	.	.	[2g/
.	.	4c\	.
=62	=62	=62	=62
0r	0r	2c\	2g/]
.	.	2f\	2a/
.	.	2d\	2f/
.	.	[2e\	[2g/
=63	=63	=63	=63
0r	0r	4e\]	4g/]
.	.	4d\	4f/
.	.	1c	2e/
.	.	.	1d
.	.	2B\	.
=64	=64	=64	=64
0r	0r	0c	2r
.	.	.	2g/
.	.	.	2a/
.	.	.	2g/
=65	=65	=65	=65
0r	0r	2r	1cc
.	.	2c\	.
.	.	2d\	2b\
.	.	2c\	[2cc\
=66	=66	=66	=66
0r	0r	1f	4cc\]
.	.	.	4b\
.	.	.	2a/
.	.	2e\	2g/
.	.	[2f\	[2a/
=67	=67	=67	=67
0r	0r	4f\]	4a/]
.	.	4e\	4g/
.	.	2d\	2f/
.	.	2c\	2e/
.	.	[2d\	2f/
=68	=68	=68	=68
0r	0r	4d\]	2d/
.	.	4c\	.
.	.	2B\	2dd\
.	.	2A/	2cc\
.	.	2B\	[2dd\
=69	=69	=69	=69
0r	0r	2G/	4dd\]
.	.	.	4cc\
.	.	2g\	2b\
.	.	2f\	2a/
.	.	[2g\	2b\
=70	=70	=70	=70
0r	0r	4g\]	2g/
.	.	4f\	.
.	.	2e\	2cc\
.	.	2d\	2b\
.	.	2e\	[2cc\
=71	=71	=71	=71
0r	0r	2c\	4cc\]
.	.	.	4b\
.	.	2f\	2a/
.	.	2e\	2g/
.	.	[2f\	[2a/
=72	=72	=72	=72
0r	0r	4f\]	4a/]
.	.	4e\	4g/
.	.	1d	2f/
.	.	.	1e
.	.	2c#i\	.
=73	=73	=73	=73
0r	0r	1d	3.d/V
.	.	.	6e/
.	.	.	3f/Z
.	.	1r	3g/V
.	.	.	3a/
.	.	.	3f/Z
=74	=74	=74	=74
0r	0r	3.G/V	1g
.	.	6A/	.
.	.	3B\Z	.
.	.	3c\V	1r
.	.	3d\	.
.	.	3B\Z	.
=75	=75	=75	=75
0r	0r	1c	3.g/V
.	.	.	6a/
.	.	.	3b\Z
.	.	1r	3cc\V
.	.	.	3dd\
.	.	.	3b\Z
=76	=76	=76	=76
0r	0r	3.c\V	1cc
.	.	6d\	.
.	.	3e\Z	.
.	.	3f\V	1r
.	.	3g\	.
.	.	3e\Z	.
=77	=77	=77	=77
0r	0r	1.f	3.a/V
.	.	.	6b\
.	.	.	3cc\Z
.	.	.	3dd\V
.	.	.	3ee\
.	.	2e\	.
.	.	.	3cc\Z
=78	=78	=78	=78
0r	0r	2f\	2.dd\
.	.	2d\	.
.	.	.	4cc\
.	.	2f\	2a/
.	.	[2e\	2cc\
=79	=79	=79	=79
0r	0r	2e\]	2b\
.	.	2c\	1a
.	.	2d\	.
.	.	2e\	2g/
=80	=80	=80	=80
0r	0r	2f\	2.dd\
.	.	2d\	.
.	.	.	4cc\
.	.	2.f\	2a/
.	.	.	2cc\
.	.	4e\	.
=81	=81	=81	=81
0r	0r	2d\	2b\
.	.	2c\	1a
.	.	1B	.
.	.	.	2g/
=82	=82	=82	=82
0r	0r	1A	2.a/
.	.	.	4g/
.	.	2r	2e/
.	.	2E/	2g/
=83	=83	=83	=83
0r	0r	2F/	2f/
.	.	2G/	1e
.	.	2A/	.
.	.	2B\	2d/
=84	=84	=84	=84
0r	0r	2c\	2.a/
.	.	2d\	.
.	.	.	4g/
.	.	2e\	2e/
.	.	2E/	2g/
=85	=85	=85	=85
0r	0r	2F/	2f/
.	.	2G/	1e
.	.	2A/	.
.	.	2B\	2d/
=86	=86	=86	=86
0r	0r	2c\	2e/
.	.	2d\	2f/
.	.	2e\	2g/
.	.	[2f\	2a/
=87	=87	=87	=87
0r	0r	4f\]	2b\
.	.	4e\	.
.	.	1e	1cc
.	.	2d\	4b\
.	.	.	4a/
=88	=88	=88	=88
0r	0r	0e	1g
.	.	.	1c
=89	=89	=89	=89
0r	0r	2r	[0gl
.	.	2.e\	.
.	.	4d\	.
.	.	2B\	.
=90	=90	=90	=90
0r	0r	2c\	0g_
.	.	2B\	.
.	.	1e	.
=91	=91	=91	=91
0r	0r	0El	0g]
!!LO:LB:i:g=z
=92||	=92||	=92||	=92||
*>C	*>C	*>C	*>C
*clefF4	*clefGv2	*clefGv2	*clefG2
*k[]	*k[]	*k[]	*k[]
*M2/1	*M2/1	*M2/1	*M2/1
*met(C|)	*met(C|)	*met(C|)	*met(C|)
!!section: Osanna
!!!OMD: Osanna
2.E\	2.B\	0r	0r
4F\	4A/	.	.
2G\	2B\	.	.
2A\	[2c\	.	.
=93	=93	=93	=93
2.E\	4c\]	0r	0r
.	4B\	.	.
.	4c\	.	.
4F\	4A/	.	.
2G\	2B\	.	.
2A\	[2c\	.	.
=94	=94	=94	=94
2E\	4c\]	0r	0r
.	4B\	.	.
1A	4c\	.	.
.	4A/	.	.
.	1B	.	.
2G#i\	.	.	.
=95	=95	=95	=95
1A	1A	2.A/	2.e/
.	.	4B\	4d/
1r	1r	2c\	2e/
.	.	2d\	[2f/
=96	=96	=96	=96
0r	0r	2.A/	4f/]
.	.	.	4e/
.	.	.	4f/
.	.	4B\	4d/
.	.	2c\	2e/
.	.	2d\	[2f/
=97	=97	=97	=97
0r	0r	2A/	4f/]
.	.	.	4e/
.	.	1d	4f/
.	.	.	4d/
.	.	.	1e
.	.	2c#i\	.
=98	=98	=98	=98
2.D\	2.A/	[0d	0d
4E\	4G/	.	.
2F\	2A/	.	.
2G\	[2B\	.	.
=99	=99	=99	=99
2.D\	4B\]	0d]	0r
.	4A/	.	.
.	4B\	.	.
4E\	4G/	.	.
2F\	2A/	.	.
2G\	[2B\	.	.
=100	=100	=100	=100
2D\	4B\]	0r	0r
.	4A/	.	.
1G	4B\	.	.
.	4G/	.	.
.	1A	.	.
2F#i\	.	.	.
=101	=101	=101	=101
1.G	4G/	1r	2.g/
.	4A/	.	.
.	4B\	.	.
.	4c\	.	4a/
.	2d\	1g	2b\
2C/	[2e\	.	2cc\
=102	=102	=102	=102
4c\	4e\]	2.e\	2.g/
4B\	4d\	.	.
4c\	4e\	.	.
4A\	4c\	4f\	4a/
2G\	2d\	1g	2b\
[2c\	[2e\	.	2cc\
=103	=103	=103	=103
4c\]	4e\]	2.e\	2g/
4B\	4d\	.	.
4c\	4e\	.	1cc
4A\	4c\	4f\	.
1G	1d	1g	.
.	.	.	2b\
=104	=104	=104	=104
*M3/1	*M3/1	*M3/1	*M3/1
*met(3)	*met(3)	*met(3)	*met(3)
1C	0c	0.e	0cc
1.c	.	.	.
.	1r	.	1r
2B\	.	.	.
=105	=105	=105	=105
1.A	0.r	0.r	1.cc
2F\	.	.	2a/
1G	.	.	1b
=106	=106	=106	=106
1F	0.r	1.f	1a
1D	.	.	1dd
.	.	2d\	.
1A	.	1e	1cc
=107	=107	=107	=107
1B	0.r	1d	1.dd
1G	.	1g	.
.	.	.	2b\
1A	.	1f	1cc
=108	=108	=108	=108
1G	0.r	1.g	1b
1r	.	.	1g
.	.	2e\	.
1r	.	1f	1a
=109	=109	=109	=109
0.r	1.c	1e	1g
.	.	1c	1r
.	2A/	.	.
.	1B	1d	1r
=110	=110	=110	=110
1.F	1A	1c	0.r
.	1d	1F	.
2D\	.	.	.
1E	1c	1G	.
=111	=111	=111	=111
1D	1.d	1A	0.r
1G	.	1G	.
.	2B\	.	.
1F	1c	1A	.
=112	=112	=112	=112
1G	1B	1B	0.r
1E	1e	1c	.
1F	1d	1A	.
=113	=113	=113	=113
1E	1e	1B	1.g
1C	1r	1e	.
.	.	.	2e/
1D	1r	1d	1f
=114	=114	=114	=114
0AA	1.c	0.e	1e
.	.	.	1a
.	2A/	.	.
1E	1B	.	1g
=115	=115	=115	=115
1.F	1A	0.r	0a
.	1d	.	.
2D\	.	.	.
1E	1c	.	1r
=116	=116	=116	=116
1D	1d	1.d	0.r
1G	1r	.	.
.	.	2B\	.
1F	1r	1c	.
=117	=117	=117	=117
1.G	0.r	1B	0.r
.	.	1G	.
2E\	.	.	.
1F	.	1A	.
=118	=118	=118	=118
1E	0.r	1G	1.g
1C	.	1c	.
.	.	.	2e/
1D	.	1B	1f
=119	=119	=119	=119
1C	1.c	1c	1e
1F	.	1r	1a
.	2A/	.	.
1E	1B	1r	1g
=120	=120	=120	=120
1F	1A	0.r	1a
1D	1d	.	1f
1E	1c	.	1g
=121	=121	=121	=121
1D	0d	1.d	1f
1G	.	.	1d
.	.	2B\	.
1C	1r	1c	1e
=122	=122	=122	=122
1G	0.r	1B	1d
1E	.	1e	1g
1F	.	1d	1f
=123	=123	=123	=123
1E	1.e	0e	1g
1A	.	.	1e
.	2c\	.	.
1D	1d	1r	1f
=124	=124	=124	=124
1A	1c	0.r	1e
1F	1A	.	1a
1G	1B	.	1g
=125	=125	=125	=125
1F	1A	1r	1a
1D	1d	1r	1f
1E	1c	1e	1g
=126	=126	=126	=126
0D	1d	1f	1f
.	1.f	1d	1.a
1r	.	1f	.
.	2e\	.	2b\
=127	=127	=127	=127
1AA	1c	1e	1cc
1.D	1.d	1f	1.f
.	.	1d	.
2E\	2c\	.	2g/
=128	=128	=128	=128
1F	1A	1c	1.a
1D	0B	1d	.
.	.	.	2f/
1E	.	1B	1g
=129	=129	=129	=129
1AA	1A	1.c	1a
1.A	1r	.	1.cc
.	.	2d\	.
.	1A	1e	.
2G\	.	.	2b\
=130	=130	=130	=130
1E	1B	1e	1g
1.F	1.A	1c	1.a
.	.	1d	.
2E\	2B\	.	2g/
=131	=131	=131	=131
1C	1c	1e	1e
0D	1.F	1A	0f
.	.	1d	.
.	2G/	.	.
=132	=132	=132	=132
0AA	1A	1c	1e
.	1c	0e	1r
1E	1B	.	1g
=133	=133	=133	=133
1F	0A	1.c	1a
1.A	.	.	1.cc
.	.	2d\	.
.	1A	1e	.
2G\	.	.	2b\
=134	=134	=134	=134
1E	1B	1e	1g
1.F	1.A	1c	1.a
.	.	1d	.
2E\	2B\	.	2g/
=135	=135	=135	=135
1C	1c	1e	1e
0D	1.F	1A	0f
.	.	1d	.
.	2G/	.	.
=136	=136	=136	=136
1AA	1A	1c	[0.el
1.C	1.E	1.e	.
2BB/	2F/	2d\	.
=137	=137	=137	=137
1GG	1G	1B	0.e_
0AA	1.C	0c	.
.	2D/	.	.
=138	=138	=138	=138
0.El	0.El	0.Bl	0.e]
!!LO:LB:i:g=z
!!LO:TX:rj:i:t=fine
=139||	=139||	=139||	=139||
*>D	*>D	*>D	*>D
*clefF4	*clefGv2	*clefGv2	*clefG2
*k[]	*k[]	*k[]	*k[]
*M2/1	*M2/1	*M2/1	*M2/1
*met(C|)	*met(C|)	*met(C|)	*met(C|)
!!section: Benedictus
!!!OMD: Benedictus
2AA/	0r	0r	0r
2BB/	.	.	.
2AA/	.	.	.
[2D\	.	.	.
=140	=140	=140	=140
2D\]	0r	0r	0r
4C/	.	.	.
4BB/	.	.	.
1AA	.	.	.
=141	=141	=141	=141
0r	2E/	0r	0r
.	2F/	.	.
.	2E/	.	.
.	[2A/	.	.
=142	=142	=142	=142
0r	2A/]	0r	0r
.	4G/	.	.
.	4F/	.	.
.	1E	.	.
=143	=143	=143	=143
2D\	0r	0r	0r
2E\	.	.	.
2D\	.	.	.
[2G\	.	.	.
=144	=144	=144	=144
2G\]	0r	0r	0r
4F\	.	.	.
4E\	.	.	.
1D	.	.	.
=145	=145	=145	=145
0r	2A/	0r	0r
.	2B\	.	.
.	2A/	.	.
.	[2d\	.	.
=146	=146	=146	=146
0r	2d\]	0r	0r
.	4c\	.	.
.	4B\	.	.
.	1A	.	.
=147	=147	=147	=147
2E\	0r	0r	0r
2F\	.	.	.
2E\	.	.	.
[2A\	.	.	.
=148	=148	=148	=148
2A\]	0r	0r	0r
4G\	.	.	.
4F\	.	.	.
1E	.	.	.
=149	=149	=149	=149
1r	2B\	0r	0r
.	2c\	.	.
[1E	2B\	.	.
.	[2e\	.	.
=150	=150	=150	=150
2E\]	2e\]	0r	0r
2F\	4d\	.	.
.	4c\	.	.
1G	1B	.	.
=151	=151	=151	=151
1A	1r	0r	0r
2.E\	[1B	.	.
4F\	.	.	.
=152	=152	=152	=152
2G\	2B\]	0r	0r
2A\	2c\	.	.
1F	1d	.	.
=153	=153	=153	=153
1E	1e	0r	0r
1r	2.B\	.	.
.	4c\	.	.
=154	=154	=154	=154
2r	2d\	0r	0r
2.C/	2e\	.	.
.	1c	.	.
4D\	.	.	.
4E\	.	.	.
4F\	.	.	.
=155	=155	=155	=155
2G\	2B\	0r	0r
2E\	2.G/	.	.
2.G\	.	.	.
.	4A/	.	.
.	4B\	.	.
4F\	4c\	.	.
=156	=156	=156	=156
2D\	2d\	0r	0r
2G\	2B\	.	.
2F\	2A/	.	.
2D\	2d\	.	.
=157	=157	=157	=157
2.F\	2c\	0r	0r
.	2A/	.	.
4E\	.	.	.
2C/	2.c\	.	.
[2E\	.	.	.
.	4B\	.	.
=158	=158	=158	=158
4E\]	2G/	0r	0r
4D\	.	.	.
2C/	1A	.	.
1BB	.	.	.
.	2G#i/	.	.
=159	=159	=159	=159
0AA	[0A	0r	0r
=160	=160	=160	=160
2r	0A]	0r	0r
2D\	.	.	.
2D\	.	.	.
2D\	.	.	.
=161	=161	=161	=161
1.F	2r	0r	0r
.	2A/	.	.
.	2A/	.	.
4E\	2A/	.	.
4D\	.	.	.
=162	=162	=162	=162
2E\	1.c	0r	0r
2AA/	.	.	.
1A	.	.	.
.	4B\	.	.
.	4A/	.	.
=163	=163	=163	=163
1.G	2B\	0r	0r
.	2E/	.	.
.	1e	.	.
4F\	.	.	.
4E\	.	.	.
=164	=164	=164	=164
2F\	1.d	0r	0r
2G\	.	.	.
1D	.	.	.
.	4c\	.	.
.	4B\	.	.
=165	=165	=165	=165
2.A\	2c\	0r	0r
.	2A/	.	.
4F\	.	.	.
2G\	2B\	.	.
2A\	[2c\	.	.
=166	=166	=166	=166
1E	2c\]	0r	0r
.	4B\	.	.
.	4A/	.	.
2r	2G/	.	.
2AA/	2A/	.	.
=167	=167	=167	=167
2AA/	1E	0r	0r
2AA/	.	.	.
[1C	2r	.	.
.	2E/	.	.
=168	=168	=168	=168
2C/]	2E/	0r	0r
4BB/	2E/	.	.
4AA/	.	.	.
2BB/	[1G	.	.
2C/	.	.	.
=169	=169	=169	=169
4GG/	2G/]	0r	0r
4AA/	.	.	.
4BB/	4F/	.	.
4C/	4E/	.	.
2D\	2F/	.	.
2E\	2G/	.	.
=170	=170	=170	=170
2F\	2.D/	0r	0r
1D	.	.	.
.	4F/	.	.
.	1E	.	.
2C#i/	.	.	.
=171	=171	=171	=171
1D	0D	0r	0r
2r	.	.	.
2D\	.	.	.
=172	=172	=172	=172
2D\	1r	0r	0r
2D\	.	.	.
[1F	2r	.	.
.	2A/	.	.
=173	=173	=173	=173
2F\]	2A/	0r	0r
4E\	2A/	.	.
4D\	.	.	.
2E\	[1c	.	.
2F\	.	.	.
=174	=174	=174	=174
4C/	2c\]	0r	0r
4D\	.	.	.
4E\	4B\	.	.
4F\	4A/	.	.
2G\	2B\	.	.
2A\	2c\	.	.
=175	=175	=175	=175
2B\	2.G/	0r	0r
1G	.	.	.
.	4B\	.	.
.	1A	.	.
2F#i\	.	.	.
=176	=176	=176	=176
1G	[0G	0r	0r
2r	.	.	.
2E\	.	.	.
=177	=177	=177	=177
2E\	1G]	0r	0r
2E\	.	.	.
[1G	2r	.	.
.	2B\	.	.
=178	=178	=178	=178
2G\]	2B\	0r	0r
4F\	2B\	.	.
4E\	.	.	.
2F\	[1d	.	.
2G\	.	.	.
=179	=179	=179	=179
4D\	2d\]	0r	0r
4E\	.	.	.
4F\	4c\	.	.
4G\	4B\	.	.
2A\	2c\	.	.
2B\	2d\	.	.
=180	=180	=180	=180
2c\	2.A/	0r	0r
1A	.	.	.
.	4c\	.	.
.	1B	.	.
2G#i\	.	.	.
=181	=181	=181	=181
1A	[0A	0r	0r
2r	.	.	.
2AA/	.	.	.
=182	=182	=182	=182
2AA/	1A]	0r	0r
2AA/	.	.	.
[1C	2r	.	.
.	2E/	.	.
=183	=183	=183	=183
2C/]	2E/	0r	0r
4BB/	2E/	.	.
4AA/	.	.	.
2BB/	[1G	.	.
2C/	.	.	.
=184	=184	=184	=184
4GG/	2G/]	0r	0r
4AA/	.	.	.
4BB/	4F/	.	.
4C/	4E/	.	.
2D\	2F/	.	.
2E\	2G/	.	.
=185	=185	=185	=185
2F\	2.D/	0r	0r
1D	.	.	.
.	4F/	.	.
.	1E	.	.
2C#i/	.	.	.
=186	=186	=186	=186
0Dl	0Dl	0r	0r
!!LO:TX:i:Y=40:rj:t=Osanna ut supra
=||	=||	=||	=||
*-	*-	*-	*-
!!!RDF**kern: l=long note in original notation
!!!RDF**kern: i=editorial accidental
!!!RDF**kern: V=start of tuplet marker
!!!RDF**kern: Z=end of tuplet marker
!!!ENC: Will Watson 01/09/2011; Victoria Chang 04/09/2011
!!!END: 2011/04/09/
!!!EED: Jesse Rodin
!!!EEV: 2013/10/25/
!!attribution-level@Jos: 1 (secure)
!!!ONB: Translated from MusicXML and edited on 2011/09/14/ by Craig Sapp
!!muse2ps: T^@{OPR}^u^@{ONM}{. }@{OTL}^C^@{COM}\n@{SCT}^i2I100v85,90,85,150c80Q16
